X:1
T:Silent Night
T:A Cappella for SSAA
T:arr. Annaka Grismer
%%score 1 2 3 4
L:1/8
M:3/4
K:Bb
V:1 treble nm="Soprano" snm="S."
V:2 treble nm="Soprano" snm="S."
V:3 treble nm="Alto" snm="A."
V:4 treble nm="Alto" snm="A."
V:1
 (F3 G) F2 | D6 | (F3 G) F2 | (E2 D4) | c4 c2 | e6 | d4 e2 | d6 | G4 G2 | (B3 A) G2 | F3 G F2 | %11
w: |||||||||||
w: Si- * lent|night|ho- * ly|night *|all is|calm|all is|bright|Round yon|vi- * rgin|moth- er and|
 D6 | G4 G2 | B3 A G2 | F3 G F2 | D6 | c4 c2 | e3 c A2 | (B6 | d6) | B4 B2 | F3 G A2 | %22
w: |||||||||||
w: child.|Ho- ly|in- fant so|ten- der and|mild.|Sleep in|hea- ven- ly|pe-|ace|Sleep in|hea- ven- ly|
 !fermata!B6 |] %23
w: |
w: peace.|
V:2
 (F3 G) F2 | (D2 B,2) D2 | (F3 G) F2 | (E2 D4) | A4 A2 | A6 | (B2 A2) B2 | F6 | G4 G2 | (B3 A) G2 | %10
w: Si- * lent|night * *|ho- * ly|night *|all is|calm|all * is|bright|Round yon|vi- * rgin|
 F3 G F2 | D6 | (G2 E2) F2 | G3 A G2 | F3 G F2 | (E2 D4) | A4 A2 | B3 B A2 | (B6 | B6) | %20
w: moth- er and|child.|Ho- * ly|in- fant so|ten- der and|mild *|Sleep in|hea- ven- ly|pe-|ace|
 (B2 F2) D2 | F3 E C2 | !fermata!F6 |] %23
w: Sle- ep in|hea- ven- ly|peace.|
V:3
 (F3 E) D2 | B,6 | (D3 E) D2 | B,6 | F4 F2 | F6 | D4 E2 | D6 | E4 E2 | (G3 F) E2 | D3 E F2 | %11
w: Si- * lent|night|ho- * ly|night|all is|calm|all is|bright|Round yon|vir- * gin|moth- er and|
 (E2 D4) | E4 E2 | G3 F E2 | D3 E D2 | F6 | (cB) A2 A2 | (cB) (AG) (FE) | (D6 | F6) | (B,2 F2) D2 | %21
w: child *|Ho- ly|in- fant so|ten- der and|mild|Sleep * * in|hea- * ven- * ly *|pe-|ace|Sle- ep in|
 D3 E C2 | !fermata!D6 |] %23
w: hea- ven- ly|peace.|
V:4
 (F3 E) D2 | (B,2 F,2) A,2 | (D3 E) D2 | B,6 | E4 E2 | F6 | D4 E2 | B,6 | (E2 B,2) E2 | (G3 F) E2 | %10
w: Si- * lent|night * *|ho- * ly|night|all is|calm|all is|bright|Round * yon|vir- * gin|
 B,3 C B,2 | B,6 | (E2 B,2) C2 | D3 D C2 | B,3 C B,2 | B,6 | (cB) A2 A2 | (cB) (AG) (FE) | (D6 | %19
w: moth- er and|child|Ho- * ly|in- fant so|ten- der and|mild|Sleep * * in|hea- * ven- * ly *|pe-|
 E2) D4 | F4 F2 | D3 B, A,2 | !fermata!B,6 |] %23
w: ace *|Sleep in|hea- ven- ly|peace.|

